src/lib/packages/icons/src/assets/filled/envelope-open.svg

<svg width="24" height="24" viewBox="0 0 24 24" fill="none" xmlns="http://www.w3.org/2000/svg">
<path d="M19.887 7.652L13.6641 3.504C12.6561 2.832 11.3429 2.832 10.3359 3.504L4.11304 7.652C3.41704 8.116 3 8.896 3 9.732V18C3 20 4 21 6 21H18C20 21 21 20 21 18V9.732C21 8.897 20.582 8.116 19.887 7.652ZM17.4409 11.606L12.8569 14.94C12.5599 15.155 12.212 15.263 11.866 15.263C11.518 15.263 11.172 15.155 10.876 14.94L6.29199 11.606C5.95699 11.362 5.88295 10.893 6.12695 10.558C6.36895 10.224 6.83805 10.148 7.17505 10.393L11.759 13.727C11.823 13.774 11.9091 13.774 11.9761 13.726L16.5591 10.393C16.8971 10.148 17.3639 10.224 17.6069 10.558C17.8509 10.894 17.7759 11.363 17.4409 11.606Z" fill="currentColor"/>
</svg>

<svg xmlns="http://www.w3.org/2000/svg" width="24" height="24" fill="none"><path fill="currentColor" d="m19.887 7.652-6.223-4.148a3 3 0 0 0-3.328 0L4.113 7.652A2.499 2.499 0 0 0 3 9.732V18c0 2 1 3 3 3h12c2 0 3-1 3-3V9.732c0-.835-.418-1.616-1.113-2.08Zm-2.446 3.954-4.584 3.334a1.68 1.68 0 0 1-1.98 0l-4.585-3.334a.75.75 0 1 1 .883-1.213l4.584 3.334c.064.047.15.047.217-.001l4.583-3.333a.75.75 0 1 1 .882 1.213Z"/></svg>
